flaticon/army-badges/target-23.svg

<svg xmlns="http://www.w3.org/2000/svg" width="32" height="32" viewBox="0 0 24 24">
    <path d="M 12 0 C 5.398438 0 0 5.359375 0 12 C 0 18.640625 5.398438 24 12 24 C 18.601562 24 24 18.601562 24 12 C 24 5.398438 18.601562 0 12 0 Z M 12 23.199219 C 5.839844 23.199219 0.800781 18.160156 0.800781 12 C 0.800781 5.839844 5.839844 0.800781 12 0.800781 C 18.160156 0.800781 23.199219 5.839844 23.199219 12 C 23.199219 18.160156 18.160156 23.199219 12 23.199219 Z M 12 23.199219"/>
    <path d="M 12 1.601562 C 6.28125 1.601562 1.601562 6.28125 1.601562 12 C 1.601562 14.839844 2.738281 17.410156 4.578125 19.28125 C 4.59375 19.308594 4.617188 19.335938 4.640625 19.359375 C 4.667969 19.386719 4.695312 19.410156 4.726562 19.429688 C 6.605469 21.269531 9.175781 22.398438 12 22.398438 C 14.832031 22.398438 17.40625 21.261719 19.289062 19.417969 C 19.3125 19.398438 19.339844 19.382812 19.359375 19.359375 C 19.382812 19.335938 19.40625 19.308594 19.421875 19.28125 C 21.261719 17.410156 22.398438 14.839844 22.398438 12 C 22.398438 6.28125 17.71875 1.601562 12 1.601562 Z M 19.054688 18.492188 L 16.230469 15.667969 C 17.101562 14.660156 17.601562 13.347656 17.601562 12 C 17.601562 10.664062 17.109375 9.359375 16.25 8.351562 L 19.074219 5.527344 C 20.640625 7.238281 21.601562 9.511719 21.601562 12 C 21.601562 14.5 20.632812 16.78125 19.054688 18.492188 Z M 14.839844 14.28125 C 14.679688 14.121094 14.441406 14.121094 14.28125 14.28125 C 14.121094 14.441406 14.121094 14.679688 14.28125 14.839844 L 15.109375 15.667969 C 14.234375 16.414062 13.148438 16.800781 12 16.800781 C 10.851562 16.800781 9.765625 16.414062 8.890625 15.667969 L 9.71875 14.839844 C 9.878906 14.679688 9.878906 14.441406 9.71875 14.28125 C 9.558594 14.121094 9.320312 14.121094 9.160156 14.28125 L 8.332031 15.109375 C 7.585938 14.234375 7.199219 13.148438 7.199219 12 C 7.199219 10.859375 7.582031 9.785156 8.3125 8.914062 L 9.160156 9.761719 C 9.238281 9.839844 9.320312 9.878906 9.441406 9.878906 C 9.558594 9.878906 9.640625 9.839844 9.71875 9.761719 C 9.878906 9.601562 9.878906 9.359375 9.71875 9.199219 L 8.871094 8.351562 C 9.75 7.59375 10.839844 7.199219 12 7.199219 C 13.160156 7.199219 14.25 7.59375 15.128906 8.351562 L 14.28125 9.199219 C 14.121094 9.359375 14.121094 9.601562 14.28125 9.761719 C 14.359375 9.839844 14.441406 9.878906 14.558594 9.878906 C 14.640625 9.878906 14.761719 9.839844 14.839844 9.761719 L 15.6875 8.914062 C 16.417969 9.785156 16.800781 10.859375 16.800781 12 C 16.800781 13.148438 16.414062 14.234375 15.667969 15.109375 Z M 18.515625 4.964844 L 15.691406 7.789062 C 14.679688 6.902344 13.355469 6.398438 12 6.398438 C 10.644531 6.398438 9.320312 6.902344 8.308594 7.789062 L 5.484375 4.964844 C 7.199219 3.375 9.492188 2.398438 12 2.398438 C 14.507812 2.398438 16.800781 3.375 18.515625 4.964844 Z M 4.925781 5.527344 L 7.75 8.351562 C 6.890625 9.351562 6.398438 10.625 6.398438 12 C 6.398438 13.382812 6.898438 14.667969 7.769531 15.671875 L 4.945312 18.492188 C 3.367188 16.78125 2.398438 14.5 2.398438 12 C 2.398438 9.511719 3.359375 7.238281 4.925781 5.527344 Z M 5.507812 19.054688 L 8.332031 16.230469 C 9.339844 17.101562 10.652344 17.601562 12 17.601562 C 13.347656 17.601562 14.660156 17.101562 15.667969 16.230469 L 18.492188 19.054688 C 16.78125 20.632812 14.5 21.601562 12 21.601562 C 9.5 21.601562 7.21875 20.632812 5.507812 19.054688 Z M 5.507812 19.054688"/>
    <path d="M 13.601562 11.601562 L 12.398438 11.601562 L 12.398438 10.398438 C 12.398438 10.160156 12.238281 10 12 10 C 11.761719 10 11.601562 10.160156 11.601562 10.398438 L 11.601562 11.601562 L 10.398438 11.601562 C 10.160156 11.601562 10 11.761719 10 12 C 10 12.238281 10.160156 12.398438 10.398438 12.398438 L 11.601562 12.398438 L 11.601562 13.601562 C 11.601562 13.839844 11.761719 14 12 14 C 12.238281 14 12.398438 13.839844 12.398438 13.601562 L 12.398438 12.398438 L 13.601562 12.398438 C 13.839844 12.398438 14 12.238281 14 12 C 14 11.761719 13.839844 11.601562 13.601562 11.601562 Z M 13.601562 11.601562"/>
</svg>

<svg xmlns="http://www.w3.org/2000/svg" width="32" height="32" viewBox="0 0 24 24">
    <path d="M12 0C5.398 0 0 5.36 0 12s5.398 12 12 12 12-5.398 12-12S18.602 0 12 0zm0 23.2C5.84 23.2.8 18.16.8 12 .8 5.84 5.84.8 12 .8 18.16.8 23.2 5.84 23.2 12c0 6.16-5.04 11.2-11.2 11.2zm0 0"/>
    <path d="M12 1.602C6.281 1.602 1.602 6.282 1.602 12c0 2.84 1.136 5.41 2.976 7.281a.484.484 0 0 0 .148.148A10.367 10.367 0 0 0 12 22.4a10.39 10.39 0 0 0 7.29-2.981c.023-.02.05-.035.07-.059a.392.392 0 0 0 .062-.078A10.35 10.35 0 0 0 22.398 12c0-5.719-4.68-10.398-10.398-10.398zm7.055 16.89l-2.825-2.824A5.642 5.642 0 0 0 17.602 12c0-1.336-.493-2.64-1.352-3.648l2.824-2.825A9.564 9.564 0 0 1 21.602 12c0 2.5-.97 4.781-2.547 6.492zm-4.215-4.21a.385.385 0 0 0-.559 0 .385.385 0 0 0 0 .558l.828.828A4.743 4.743 0 0 1 12 16.801a4.743 4.743 0 0 1-3.11-1.133l.829-.828a.385.385 0 0 0 0-.559.385.385 0 0 0-.559 0l-.828.828A4.743 4.743 0 0 1 7.199 12c0-1.14.383-2.215 1.114-3.086l.847.848c.078.078.16.117.281.117.118 0 .2-.04.278-.117a.39.39 0 0 0 0-.563l-.848-.847A4.736 4.736 0 0 1 12 7.199c1.16 0 2.25.395 3.129 1.153l-.848.847a.39.39 0 0 0 0 .563c.078.078.16.117.278.117.082 0 .203-.04.28-.117l.848-.848A4.754 4.754 0 0 1 16.802 12a4.743 4.743 0 0 1-1.133 3.11zm3.676-9.317L15.69 7.789A5.632 5.632 0 0 0 12 6.4c-1.355 0-2.68.503-3.691 1.39L5.484 4.965A9.566 9.566 0 0 1 12 2.398c2.508 0 4.8.977 6.516 2.567zm-13.59.562L7.75 8.352A5.565 5.565 0 0 0 6.398 12c0 1.383.5 2.668 1.372 3.672l-2.825 2.82A9.552 9.552 0 0 1 2.398 12c0-2.488.961-4.762 2.528-6.473zm.582 13.528l2.824-2.825A5.642 5.642 0 0 0 12 17.602c1.348 0 2.66-.5 3.668-1.372l2.824 2.825A9.552 9.552 0 0 1 12 21.602c-2.5 0-4.781-.97-6.492-2.547zm0 0"/>
    <path d="M13.602 11.602h-1.204v-1.204c0-.238-.16-.398-.398-.398-.238 0-.398.16-.398.398v1.204h-1.204c-.238 0-.398.16-.398.398 0 .238.16.398.398.398h1.204v1.204c0 .238.16.398.398.398.238 0 .398-.16.398-.398v-1.204h1.204c.238 0 .398-.16.398-.398 0-.238-.16-.398-.398-.398zm0 0"/>
</svg>
